polaris-icons/icons/new-icons/WifiMajor.svg

<svg width="20" height="20" viewBox="0 0 20 20" fill="none" xmlns="http://www.w3.org/2000/svg">
<path d="M2.24968 7.21792C1.95679 7.51081 1.95679 7.98569 2.24968 8.27858C2.54257 8.57147 3.01745 8.57147 3.31034 8.27858C7.02032 4.5686 13.0354 4.5686 16.7454 8.27858C17.0383 8.57147 17.5131 8.57147 17.806 8.27858C18.0989 7.98569 18.0989 7.51081 17.806 7.21792C13.5103 2.92215 6.54545 2.92215 2.24968 7.21792Z" fill="#4A4A4A"/>
<path d="M4.72456 10.7532C4.43167 10.4603 4.43167 9.98542 4.72456 9.69253C7.6535 6.7636 12.4022 6.7636 15.3312 9.69253C15.6241 9.98542 15.6241 10.4603 15.3312 10.7532C15.0383 11.0461 14.5634 11.0461 14.2705 10.7532C11.9274 8.41004 8.12837 8.41004 5.78522 10.7532C5.49233 11.0461 5.01746 11.0461 4.72456 10.7532Z" fill="#4A4A4A"/>
<path d="M6.84587 11.8136C6.55298 12.1065 6.55298 12.5814 6.84587 12.8743C7.13876 13.1672 7.61364 13.1672 7.90653 12.8743C9.0781 11.7027 10.9776 11.7027 12.1492 12.8743C12.4421 13.1672 12.9169 13.1672 13.2098 12.8743C13.5027 12.5814 13.5027 12.1065 13.2098 11.8136C11.4525 10.0563 8.60323 10.0563 6.84587 11.8136Z" fill="#4A4A4A"/>
<path d="M8.96721 13.9356C8.38142 14.5214 8.38142 15.4712 8.96721 16.057C9.55299 16.6427 10.5027 16.6427 11.0885 16.057C11.6743 15.4712 11.6743 14.5214 11.0885 13.9356C10.5027 13.3498 9.55299 13.3498 8.96721 13.9356Z" fill="#4A4A4A"/>
</svg>

<svg viewBox="0 0 20 20" xmlns="http://www.w3.org/2000/svg"><path d="M2.25 7.218a.75.75 0 0 0 1.06 1.06 9.5 9.5 0 0 1 13.435 0 .75.75 0 1 0 1.061-1.06c-4.296-4.296-11.26-4.296-15.556 0Z" fill="#5C5F62"/><path d="M4.725 10.753a.75.75 0 0 1 0-1.06 7.5 7.5 0 0 1 10.606 0 .75.75 0 1 1-1.06 1.06 6 6 0 0 0-8.486 0 .75.75 0 0 1-1.06 0Z" fill="#5C5F62"/><path d="M6.846 11.814a.75.75 0 0 0 1.06 1.06 3 3 0 0 1 4.243 0 .75.75 0 1 0 1.06-1.06 4.5 4.5 0 0 0-6.363 0Z" fill="#5C5F62"/><path d="M8.967 13.936a1.5 1.5 0 1 0 2.122 2.121 1.5 1.5 0 0 0-2.122-2.121Z" fill="#5C5F62"/></svg>
